public/assets/images/contact/icon/01.svg

<svg width="45" height="41" viewBox="0 0 45 41" fill="none" xmlns="http://www.w3.org/2000/svg">
<path d="M20.625 8.75C20.625 7.73438 21.4062 6.875 22.5 6.875C23.5156 6.875 24.375 7.73438 24.375 8.75C24.375 9.84375 23.5156 10.625 22.5 10.625C21.4062 10.625 20.625 9.84375 20.625 8.75ZM21.3281 24.375C18.8281 21.25 13.125 13.6719 13.125 9.375C13.125 4.21875 17.2656 0 22.5 0C27.6562 0 31.875 4.21875 31.875 9.375C31.875 13.6719 26.0938 21.25 23.5938 24.375C23.0469 25.1562 21.875 25.1562 21.3281 24.375ZM28.5938 12.1094C29.1406 10.8594 29.375 10 29.375 9.375C29.375 5.625 26.25 2.5 22.5 2.5C18.6719 2.5 15.625 5.625 15.625 9.375C15.625 10 15.7812 10.8594 16.3281 12.1094C16.7969 13.3594 17.5781 14.6875 18.3594 16.0156C19.6875 18.2031 21.25 20.3125 22.5 21.875C23.6719 20.3125 25.2344 18.2031 26.5625 16.0156C27.3438 14.6875 28.125 13.3594 28.5938 12.1094ZM31.6406 17.4219C31.6406 17.5 31.5625 17.5 31.4844 17.5C32.1094 16.4062 32.7344 15.2344 33.2031 14.1406L42.4219 10.4688C43.5938 10 45 10.8594 45 12.1875V33.3594C45 34.1406 44.5312 34.8438 43.75 35.0781L31.6406 39.9219C31.4062 40.0781 31.1719 40.0781 30.8594 40L13.75 35.0781L2.5 39.6094C1.32812 40.0781 0 39.2188 0 37.8906V16.7188C0 15.9375 0.390625 15.2344 1.17188 15L10.7812 11.0938C10.9375 11.9531 11.1719 12.7344 11.4844 13.5156L2.5 17.1094V36.9531L12.5 32.9688V23.75C12.5 23.125 13.0469 22.5 13.75 22.5C14.375 22.5 15 23.125 15 23.75V32.8125L30 37.1094V23.75C30 23.125 30.5469 22.5 31.25 22.5C31.875 22.5 32.5 23.125 32.5 23.75V36.9531L42.5 32.9688V13.125L31.6406 17.4219Z" fill="#0F62FE"/>
</svg>

<svg xmlns="http://www.w3.org/2000/svg" width="45" height="41" fill="none" viewBox="0 0 45 41"><path fill="#0f62fe" d="M20.625 8.75c0-1.016.781-1.875 1.875-1.875 1.016 0 1.875.86 1.875 1.875 0 1.094-.86 1.875-1.875 1.875-1.094 0-1.875-.781-1.875-1.875m.703 15.625c-2.5-3.125-8.203-10.703-8.203-15A9.35 9.35 0 0 1 22.5 0c5.156 0 9.375 4.219 9.375 9.375 0 4.297-5.781 11.875-8.281 15a1.388 1.388 0 0 1-2.266 0m7.266-12.266c.547-1.25.781-2.109.781-2.734 0-3.75-3.125-6.875-6.875-6.875-3.828 0-6.875 3.125-6.875 6.875 0 .625.156 1.484.703 2.734.469 1.25 1.25 2.579 2.031 3.907 1.328 2.187 2.891 4.297 4.141 5.859 1.172-1.562 2.734-3.672 4.063-5.86.78-1.328 1.562-2.656 2.03-3.906m3.047 5.313c0 .078-.078.078-.157.078.625-1.094 1.25-2.266 1.72-3.36l9.218-3.671C43.594 10 45 10.859 45 12.188v21.171c0 .782-.469 1.485-1.25 1.72l-12.11 4.843c-.234.156-.468.156-.78.078l-17.11-4.922L2.5 39.61c-1.172.47-2.5-.39-2.5-1.718V16.719c0-.782.39-1.485 1.172-1.719l9.61-3.906c.155.86.39 1.64.702 2.422L2.5 17.109v19.844l10-3.984V23.75c0-.625.547-1.25 1.25-1.25.625 0 1.25.625 1.25 1.25v9.063l15 4.296V23.75c0-.625.547-1.25 1.25-1.25.625 0 1.25.625 1.25 1.25v13.203l10-3.984V13.125z"/></svg>
